img/svg/endreTiltak.svg

<svg width="24" height="24" xmlns="http://www.w3.org/2000/svg"><path d="M23.265 2.893L21.143.771c-.943-.944-2.592-.944-3.536 0l-.707.707-14.637 14.64-.004.003-.003.004-.248.248a.499.499 0 0 0-.133.239L.358 23.077a.5.5 0 0 0 .601.601l6.466-1.517a.499.499 0 0 0 .239-.133l.246-.246.006-.004.004-.006L21.119 8.575c.004-.004.01-.005.014-.009.004-.004.005-.01.009-.014l1.407-1.406c.003-.003.008-.004.012-.008s.004-.008.008-.012l.698-.698a2.507 2.507 0 0 0-.002-3.535zm-2.487 4.608l-4.233-4.254.708-.708 4.244 4.244-.719.718zM7.561 20.717l-4.242-4.242L15.838 3.954l4.233 4.254-12.51 12.509zm-4.823-3.409l3.99 3.99-5.213 1.223 1.223-5.213zm19.82-11.586l-.354.354-4.244-4.244.354-.354c.565-.566 1.555-.567 2.122 0L22.558 3.6a1.504 1.504 0 0 1 0 2.122z" fill-rule="nonzero" fill="#0067C5"/></svg>

<?xml version="1.0" encoding="UTF-8" standalone="no"?>
<svg width="24px" height="24px" viewBox="0 0 24 24" version="1.1" xmlns="http://www.w3.org/2000/svg" xmlns:xlink="http://www.w3.org/1999/xlink">
    <!-- Generator: Sketch 47.1 (45422) - http://www.bohemiancoding.com/sketch -->
    <title>pencil 2 copy</title>
    <desc>Created with Sketch.</desc>
    <defs></defs>
    <g id="Vurdere-tiltak" stroke="none" stroke-width="1" fill="none" fill-rule="evenodd">
        <g id="AG_Tiltak-lagt-inn-av-sykmeldt-Copy" transform="translate(-327.000000, -1049.000000)" fill-rule="nonzero" fill="#0067C5">
            <g id="pencil-2-copy" transform="translate(327.000000, 1049.000000)">
                <path d="M23.265,2.893 L21.143,0.771 C20.2,-0.173 18.551,-0.173 17.607,0.771 L16.9,1.478 C16.9,1.478 16.9,1.478 16.9,1.478 C16.9,1.478 16.9,1.478 16.9,1.478 L2.263,16.118 C2.262,16.119 2.26,16.119 2.259,16.121 C2.258,16.123 2.258,16.124 2.256,16.125 L2.008,16.373 C1.942,16.439 1.896,16.522 1.875,16.612 L0.358,23.077 C0.318,23.245 0.369,23.422 0.491,23.545 C0.586,23.64 0.714,23.691 0.845,23.691 C0.883,23.691 0.921,23.687 0.959,23.678 L7.425,22.161 C7.515,22.14 7.598,22.094 7.664,22.028 L7.91,21.782 C7.912,21.78 7.914,21.78 7.916,21.778 C7.918,21.776 7.918,21.774 7.92,21.772 L21.119,8.575 C21.123,8.571 21.129,8.57 21.133,8.566 C21.137,8.562 21.138,8.556 21.142,8.552 L22.549,7.146 C22.552,7.143 22.557,7.142 22.561,7.138 C22.565,7.134 22.565,7.13 22.569,7.126 L23.267,6.428 C24.238,5.453 24.238,3.867 23.265,2.893 Z M20.778,7.501 L16.545,3.247 L17.253,2.539 L21.497,6.783 L20.778,7.501 Z M7.561,20.717 L3.319,16.475 L15.838,3.954 L20.071,8.208 L7.561,20.717 Z M2.738,17.308 L6.728,21.298 L1.515,22.521 L2.738,17.308 Z M22.558,5.722 L22.204,6.076 L17.96,1.832 L18.314,1.478 C18.879,0.912 19.869,0.911 20.436,1.478 L22.558,3.6 C23.142,4.184 23.142,5.136 22.558,5.722 Z" id="Shape"></path>
            </g>
        </g>
    </g>
</svg>
